X:1
T:The Yankee Man-of-War
M:6/8
L:1/8
K:C
 D2 DE-F G| A2 B c2 E| G2 G D2 D| D3- D2 B| d2 d d2 d| c B2- B2 A|\
 G2 FE-F G| A6| d2 d d2 d| c B2- B2 A| G2 G c2 B| A3- A2 A| D3/2 D/2 D EFG|\
 A2 B c2 E| G2 G D2 D| D6|
